svgs/regular/book-open-reader.svg

<svg xmlns="http://www.w3.org/2000/svg" viewBox="0 0 512 512"><!-- Font Awesome Pro 6.0.0-alpha2 by @fontawesome - https://fontawesome.com License - https://fontawesome.com/license (Commercial License) --><path d="M459.875 192C459.25 192 458.5 192 457.875 192.125C408 194.875 317.375 205.125 256 239.625C194.625 205.125 104 194.875 54.125 192.125C53.5 192 52.75 192 52.125 192C31.75 192 0 206.375 0 242.25V420.25C0 447 21.25 469 48.375 470.375C82.75 472.25 168.875 479.5 225.375 507.875C230.75 510.625 236.625 512 242.5 512H269.5C275.25 512 281.25 510.625 286.625 507.875C343.125 479.5 429.25 472.25 463.625 470.375C490.75 469 512 447 512 420.25V242.25C512 206.375 480.25 192 459.875 192ZM232 458.375C171.375 432.625 93.875 424.75 50.875 422.5C49.125 422.375 48 421.25 48 420.25L47.5 241.875C48.25 241 50.875 240.125 51.375 240C87.25 242 176.5 250.125 232 281.25V458.375ZM464 420.25C464 421.25 462.875 422.375 461.125 422.5C418.25 424.75 340.75 432.625 280 458.5V281.25C335.375 250.25 424.125 242.125 459.875 240C461.375 240.125 463.75 241.125 464 242.25V420.25ZM256 192C309 192 352 149 352 96S309 0 256 0S160 43 160 96S203 192 256 192ZM256 48C282.5 48 304 69.5 304 96S282.5 144 256 144S208 122.5 208 96S229.5 48 256 48Z"/></svg>

<svg xmlns="http://www.w3.org/2000/svg" viewBox="0 0 512 512"><!--! Font Awesome Pro 6.0.0-alpha3 by @fontawesome - https://fontawesome.com License - https://fontawesome.com/license (Commercial License) --><path d="M459.9 192c-.625 0-1.375 0-2 .125C408 194.9 317.4 205.1 256 239.6c-61.38-34.5-152-44.75-201.9-47.5C53.5 192 52.75 192 52.12 192C31.75 192 0 206.4 0 242.2v177.1C0 447 21.25 469 48.38 470.4c34.38 1.875 120.5 9.125 177 37.5C230.8 510.6 236.5 512 242.4 512h27.12c5.75 0 11.75-1.375 17.12-4.125c56.5-28.38 142.6-35.63 177-37.5C490.8 469 512 447 512 420.2V242.2C512 206.4 480.3 192 459.9 192zM232 458.4c-60.62-25.75-138.1-33.62-181.1-35.88C49.12 422.4 48 421.2 48 420.2L47.5 241.9C48.25 241 50.88 240.1 51.38 240C87.25 242 176.5 250.1 232 281.2V458.4zM464 420.2c0 1-1.125 2.125-2.875 2.25c-42.88 2.25-120.4 10.12-181.1 36V281.2C335.4 250.2 424.1 242.1 459.9 240C461.4 240.1 463.8 241.1 464 242.2V420.2zM256 192c53 0 96-43 96-96s-43-96-96-96S160 43 160 96S203 192 256 192zM256 48c26.5 0 48 21.5 48 48S282.5 144 256 144S208 122.5 208 96S229.5 48 256 48z"/></svg>
